icons/core/lock-shield.svg

<svg width="32" height="32" viewBox="0 0 32 32" fill="none" xmlns="http://www.w3.org/2000/svg">
<path fill-rule="evenodd" clip-rule="evenodd" d="M15.4809 1.10413C15.8211 1.01265 16.1794 1.01265 16.5196 1.10413L28.5196 4.33088C29.3931 4.56577 30.0002 5.35772 30.0002 6.26227V12C30.0002 21.4849 23.6661 28.3498 16.275 30.4615L16.0002 30.54L15.7255 30.4615C8.33436 28.3498 2.00024 21.4849 2.00024 12V6.26227C2.00024 5.35772 2.60737 4.56577 3.4809 4.33088L15.4809 1.10413ZM16.0002 3.03552L4.00024 6.26227L4.00024 12C4.00024 20.3968 9.50988 26.4794 16.0002 28.4574C22.4906 26.4794 28.0002 20.3968 28.0002 12L28.0002 6.26227L16.0002 3.03552ZM14.9335 15.1114C13.9917 14.6999 13.3336 13.7601 13.3336 12.6666C13.3336 11.1939 14.5275 9.99998 16.0002 9.99998C17.473 9.99998 18.6669 11.1939 18.6669 12.6666C18.6669 13.7601 18.0087 14.6999 17.0669 15.1114L18.0002 21.3334H14.0002L14.9335 15.1114Z" fill="black"/>
</svg>

<svg width="32" height="32" viewBox="0 0 32 32" xmlns="http://www.w3.org/2000/svg">
    <path fill-rule="evenodd" d="M15.48 1.104a2 2 0 011.04 0l12 3.227A2 2 0 0130 6.262V12c0 9.485-6.334 16.35-13.725 18.462L16 30.54l-.274-.078C8.334 28.35 2 21.485 2 12V6.262a2 2 0 011.48-1.931l12-3.227zM16 3.036L4 6.262V12c0 8.397 5.51 14.48 12 16.457C22.49 26.48 28 20.397 28 12V6.262L16 3.036zM14.934 15.11a2.667 2.667 0 112.133 0L18 21.333h-4l.934-6.222z"/>
</svg>
